www/assets/icons/do_not_touch.svg

<svg width="24" height="24" viewBox="0 0 24 24" xmlns="http://www.w3.org/2000/svg" fill='currentColor'><path d="M13.71 10.3651L11.21 7.86507V2.44507C11.21 1.75507 11.77 1.19507 12.46 1.19507C13.15 1.19507 13.71 1.75507 13.71 2.44507V10.3651ZM20.71 5.44507C20.71 4.75507 20.15 4.19507 19.46 4.19507C18.77 4.19507 18.21 4.75507 18.21 5.44507V11.1951H17.21V3.44507C17.21 2.75507 16.65 2.19507 15.96 2.19507C15.27 2.19507 14.71 2.75507 14.71 3.44507V11.3651L20.71 17.3651V5.44507ZM10.21 4.44507C10.21 3.75507 9.64998 3.19507 8.95998 3.19507C8.28998 3.19507 7.75998 3.72507 7.71998 4.37507L10.21 6.86507V4.44507ZM13.71 10.3651L11.21 7.86507V2.44507C11.21 1.75507 11.77 1.19507 12.46 1.19507C13.15 1.19507 13.71 1.75507 13.71 2.44507V10.3651ZM20.71 5.44507C20.71 4.75507 20.15 4.19507 19.46 4.19507C18.77 4.19507 18.21 4.75507 18.21 5.44507V11.1951H17.21V3.44507C17.21 2.75507 16.65 2.19507 15.96 2.19507C15.27 2.19507 14.71 2.75507 14.71 3.44507V11.3651L20.71 17.3651V5.44507ZM10.21 4.44507C10.21 3.75507 9.64998 3.19507 8.95998 3.19507C8.28998 3.19507 7.75998 3.72507 7.71998 4.37507L10.21 6.86507V4.44507ZM21.9 21.3851L3.51998 3.00507L2.09998 4.41507L7.72998 10.0451L7.70998 10.0251V14.3251C6.59998 13.6851 5.12998 12.8551 5.10998 12.8451C4.93998 12.7551 4.76998 12.7051 4.56998 12.7051C4.30998 12.7051 4.06998 12.7951 3.86998 12.9651C3.82998 12.9751 2.70998 14.0751 2.70998 14.0751L9.50998 21.2551C10.08 21.8551 10.86 22.1951 11.69 22.1951H17.71C18.33 22.1951 18.89 22.0051 19.36 21.6751L19.34 21.6551L20.49 22.8051L21.9 21.3851Z"/></svg>

<svg xmlns="http://www.w3.org/2000/svg" width="24" height="24" viewBox="0 0 24 24" fill='currentColor'><path d="m13.71 10.365-2.5-2.5v-5.42a1.25 1.25 0 0 1 2.5 0zm7-4.92a1.25 1.25 0 0 0-2.5 0v5.75h-1v-7.75a1.25 1.25 0 0 0-2.5 0v7.92l6 6zm-10.5-1c0-.69-.56-1.25-1.25-1.25-.67 0-1.2.53-1.24 1.18l2.49 2.49zm3.5 5.92-2.5-2.5v-5.42a1.25 1.25 0 0 1 2.5 0zm7-4.92a1.25 1.25 0 0 0-2.5 0v5.75h-1v-7.75a1.25 1.25 0 0 0-2.5 0v7.92l6 6zm-10.5-1c0-.69-.56-1.25-1.25-1.25-.67 0-1.2.53-1.24 1.18l2.49 2.49zm11.69 16.94L3.52 3.005 2.1 4.415l5.63 5.63-.02-.02v4.3c-1.11-.64-2.58-1.47-2.6-1.48-.17-.09-.34-.14-.54-.14-.26 0-.5.09-.7.26-.04.01-1.16 1.11-1.16 1.11l6.8 7.18c.57.6 1.35.94 2.18.94h6.02c.62 0 1.18-.19 1.65-.52l-.02-.02 1.15 1.15z"/></svg>
